static/img/menus/ico-help.svg

<svg width="16" height="16" viewBox="0 0 16 16" fill="none" xmlns="http://www.w3.org/2000/svg">
<g clip-path="url(#clip0_953_87)">
<path d="M10.1534 13.6C12.4102 13.5234 13.5769 12.3568 13.6534 10.1V5.89998C13.5769 3.64321 12.4102 2.47654 10.1534 2.39998H5.95338C3.69649 2.47642 2.52982 3.64308 2.45338 5.89998V8.62998C2.46432 9.04586 2.51876 9.44253 2.61672 9.81997C2.71321 10.197 2.85321 10.5548 3.03672 10.8933L2.08005 13.6L4.64672 12.7133C5.13258 13.051 5.66148 13.2922 6.23338 13.4366C6.60975 13.5346 7.00642 13.589 7.42338 13.6H10.1534ZM2.08017 14.4C1.87046 14.4 1.6651 14.3175 1.51236 14.1636C1.29592 13.9457 1.22341 13.623 1.32578 13.3334L2.16953 10.9462C2.03332 10.6485 1.92344 10.3377 1.8417 10.0183C1.72964 9.58655 1.66615 9.12565 1.65366 8.65102C1.65348 8.64401 1.65338 8.63699 1.65338 8.62998V5.89998C1.65338 5.89094 1.65353 5.88192 1.65384 5.8729C1.69897 4.54042 2.09133 3.49531 2.82003 2.76662C3.54872 2.03793 4.59382 1.64557 5.9263 1.60043C5.93532 1.60013 5.94435 1.59998 5.95338 1.59998H10.1534C10.1624 1.59998 10.1715 1.60013 10.1805 1.60044C11.513 1.64564 12.558 2.03803 13.2867 2.76671C14.0154 3.49541 14.4078 4.54047 14.4529 5.87288C14.4532 5.88191 14.4534 5.89094 14.4534 5.89998V10.1C14.4534 10.109 14.4532 10.118 14.4529 10.1271C14.4078 11.4595 14.0154 12.5046 13.2867 13.2333C12.558 13.9619 11.5129 14.3543 10.1805 14.3995C10.1715 14.3998 10.1624 14.4 10.1534 14.4H7.42338C7.41638 14.4 7.40937 14.3999 7.40237 14.3997C6.92733 14.3872 6.46701 14.3239 6.03418 14.2114C5.50766 14.0781 5.00721 13.8716 4.54159 13.596L2.34127 14.3561C2.25583 14.3856 2.1676 14.4 2.08017 14.4Z" fill="currentColor"/>
<path d="M8.99442 5.61523C9.07999 5.68451 9.15108 5.76997 9.20362 5.86673C9.25616 5.96349 9.28913 6.06965 9.30065 6.17915C9.31216 6.28865 9.302 6.39934 9.27073 6.50491C9.23946 6.61048 9.18771 6.70886 9.11842 6.79443C9.03575 6.8771 8.80829 7.08403 8.43602 7.41523C8.1111 7.64741 7.83652 7.94294 7.62882 8.28403C7.49937 8.59983 7.43594 8.93879 7.44242 9.28003V9.76003H8.68402C8.67461 9.45312 8.69551 9.14603 8.74642 8.84323C8.88787 8.61625 9.07944 8.42468 9.30642 8.28323C9.69555 7.94698 10.0491 7.57168 10.3616 7.16323C10.5194 6.90055 10.605 6.60083 10.6096 6.29443C10.6062 6.02127 10.5435 5.75212 10.4256 5.50567C10.3078 5.25921 10.1377 5.04136 9.92722 4.86723C9.40808 4.43076 8.74201 4.20874 8.06482 4.24643C7.40751 4.21556 6.76335 4.43772 6.26482 4.86723C6.04848 5.05405 5.87127 5.28187 5.74344 5.53754C5.61561 5.79321 5.53967 6.07166 5.52002 6.35683L6.76162 6.48083C6.85777 6.15669 7.02783 5.85929 7.25842 5.61203C7.50108 5.40711 7.80965 5.29687 8.12722 5.30163C8.28545 5.29268 8.44385 5.31586 8.59289 5.36975C8.74192 5.42365 8.87851 5.50715 8.99442 5.61523Z" fill="currentColor"/>
<path d="M8.80798 10.4008H7.44238V11.7664H8.80798V10.4008Z" fill="currentColor"/>
</g>
<defs>
<clipPath id="clip0_953_87">
<rect width="16" height="16" fill="white"/>
</clipPath>
</defs>
</svg>

<svg xmlns="http://www.w3.org/2000/svg" width="16" height="16" fill="none" viewBox="0 0 16 16"><g fill="currentColor" clip-path="url(#a)"><path d="M10.153 13.6q3.386-.115 3.5-3.5V5.9q-.114-3.385-3.5-3.5h-4.2q-3.385.114-3.5 3.5v2.73q.017.624.164 1.19.144.566.42 1.073L2.08 13.6l2.567-.887a4.8 4.8 0 0 0 1.586.724 5.3 5.3 0 0 0 1.19.163zm-8.073.8a.8.8 0 0 1-.754-1.067l.844-2.387a5.5 5.5 0 0 1-.328-.928 6 6 0 0 1-.189-1.388V5.873C1.7 4.54 2.092 3.495 2.82 2.767c.729-.73 1.774-1.121 3.106-1.167h4.254c1.333.046 2.378.438 3.107 1.167.728.728 1.12 1.773 1.166 3.106v4.254c-.045 1.332-.438 2.378-1.166 3.106-.729.729-1.774 1.121-3.107 1.166l-.027.001h-2.75a6 6 0 0 1-1.369-.189 5.6 5.6 0 0 1-1.492-.615l-2.2.76a.8.8 0 0 1-.262.044"/><path d="M8.994 5.615a.84.84 0 0 1 .124 1.18q-.123.123-.682.62a3 3 0 0 0-.807.869 2.5 2.5 0 0 0-.187.996v.48h1.242q-.014-.462.062-.917c.142-.227.333-.418.56-.56q.586-.505 1.056-1.12c.157-.262.243-.562.248-.869a1.88 1.88 0 0 0-.683-1.427 2.66 2.66 0 0 0-1.862-.62 2.57 2.57 0 0 0-1.8.62 2.17 2.17 0 0 0-.745 1.49l1.242.124c.096-.324.266-.622.496-.869.243-.205.552-.315.87-.31a1.17 1.17 0 0 1 .866.313M8.808 10.4H7.442v1.366h1.366z"/></g><defs><clipPath id="a"><path fill="#fff" d="M0 0h16v16H0z"/></clipPath></defs></svg>
